X: 11
T:The Queen of Hearts
M:6/8
L:1/8
Q:1/8=120
K:D
d'3 c'3|b3 a3|gfe fed|edB  A3|d'3  c'3|b3  a3|gfe  fed
|eac d3:||
DFA AFA|Ade fed|EFG GAB|Bef g2 e|Ade f2 d
|Bef g2 e|fed g
2 f|eac d3:||
